X: 9
T:VALSE DU VILLAGE
M:3/4
L:1/4
Q:190
C:M.P.
K:C
ceg|gec|Bdf|f3|Bdf|fdB|ceg|g3|ceg|gec|Bdf|f3|Bdf|fdB|ced|c3:|
|:GAB|cde|fed|e2c|GAB|cde|fed|d3|GAB|cde|fed|e2c|gfe|dcB|ABd|c3:|
